X: 26153
T: McIntyre's Fancy
R: jig
M: 6/8
K: Adorian
cde AGE|GAB A2 d|eag ecd|eAB AGE|
cde AGE|~G3 Gcd|eaa ged|cAG A3:|
|:a2a ged|edg edc|AcA GAc|dec deg|
aeg dec|AcA GEE|cde ged|cAG A3:|

